svg/u0023_20e3.svg

<svg viewBox="0 0 128 128" xmlns="http://www.w3.org/2000/svg">
  <path d="M116,4H12c-4.42,0-8,3.58-8,8v104c0,4.42,3.58,8,8,8h104c4.42,0,8-3.58,8-8V12 C124,7.58,120.42,4,116,4z" fill="#427687"/>
  <path d="M121.7,6.3c-1.54-1.46-3.58-2.28-5.7-2.3H12c-4.42,0-8,3.58-8,8v104c0.02,2.12,0.84,4.16,2.3,5.7 l16.8-16.8h76c3.26-0.01,5.89-2.64,5.9-5.9V23L121.7,6.3z" fill="#8CAFBF"/>
  <path d="M39.7,12.9c0-2.3-1.6-3-10.8-2.7c-7.7,0.3-11.5,1.2-13.8,4 s-2.9,8.5-3,15.3c0,4.8,0,9.3,2.5,9.3c3.4,0,3.4-7.9,6.2-12.3C26.2,17.8,39.7,15.9,39.7,12.9z" opacity="0.5" fill="#B4E1ED" enable-background="new "/>
  <path d="M64.9,79.2h-7c-0.88,0-1.64,0.63-1.8,1.5L53,97.3c-0.16,0.87-0.92,1.5-1.8,1.5h-4.3 c-1.01,0-1.82-0.81-1.82-1.82c0-0.09,0.01-0.19,0.02-0.28L48,81.3c0.15-0.99-0.53-1.92-1.52-2.08c-0.09-0.01-0.19-0.02-0.28-0.02h-7 c-0.99,0.01-1.79-0.79-1.8-1.78c0-0.01,0-0.01,0-0.02v-3.9c-0.01-0.99,0.79-1.79,1.78-1.8c0.01,0,0.01,0,0.02,0h9.1 c0.88,0,1.64-0.63,1.8-1.5l2.1-11.4c0.15-0.99-0.53-1.92-1.52-2.08c-0.09-0.01-0.19-0.02-0.28-0.02h-7.6 c-0.99,0.01-1.79-0.79-1.8-1.78c0-0.01,0-0.01,0-0.02V51c-0.01-0.99,0.79-1.79,1.78-1.8c0.01,0,0.01,0,0.02,0h9.7 c0.88,0,1.64-0.63,1.8-1.5l3.2-16.9c0.16-0.87,0.92-1.5,1.8-1.5h4.3c1.01,0,1.82,0.81,1.82,1.82c0,0.09-0.01,0.19-0.02,0.28l-3,15.6 c-0.18,0.96,0.45,1.89,1.41,2.07c0.13,0.02,0.26,0.03,0.39,0.03h7.1c0.88,0,1.64-0.63,1.8-1.5l3.2-16.9c0.16-0.87,0.92-1.5,1.8-1.5 h4.3c1.01,0,1.82,0.81,1.82,1.82c0,0.09-0.01,0.19-0.02,0.28L81.1,47c-0.18,0.96,0.45,1.89,1.41,2.07c0.13,0.02,0.26,0.03,0.39,0.03 h5.9c0.99-0.01,1.79,0.79,1.8,1.78c0,0.01,0,0.01,0,0.02v3.9c0.01,0.99-0.79,1.79-1.78,1.8c-0.01,0-0.01,0-0.02,0h-8 c-0.88,0-1.64,0.63-1.8,1.5l-2.1,11.4c-0.15,0.99,0.53,1.92,1.52,2.08c0.09,0.01,0.19,0.02,0.28,0.02h6.6 c0.99-0.01,1.79,0.79,1.8,1.78c0,0.01,0,0.01,0,0.02v3.9c0.01,0.99-0.79,1.79-1.78,1.8c-0.01,0-0.01,0-0.02,0h-8.7 c-0.88,0-1.64,0.63-1.8,1.5l-3.1,16.6c-0.16,0.87-0.92,1.5-1.8,1.5h-4.3c-1.01,0-1.82-0.81-1.82-1.82c0-0.09,0.01-0.19,0.02-0.28 l2.8-15.3c0.24-0.88-0.27-1.8-1.16-2.04C65.27,79.21,65.08,79.19,64.9,79.2z M60,71.6h7c0.88,0,1.64-0.63,1.8-1.5l2.1-11.4 c0.15-0.99-0.53-1.92-1.52-2.08c-0.09-0.01-0.19-0.02-0.28-0.02h-7c-0.88,0-1.64,0.63-1.8,1.5l-2.1,11.4 c-0.15,0.99,0.53,1.92,1.52,2.08C59.81,71.59,59.91,71.6,60,71.6z" fill="#FAFAFA"/>
</svg>

<svg viewBox="0 0 128 128" xmlns="http://www.w3.org/2000/svg">
  <defs/>
  <path d="M116,4 L12,4 C7.58,4 4,7.58 4,12 L4,116 C4,120.42 7.58,124 12,124 L116,124 C120.42,124 124,120.42 124,116 L124,12 C124,7.58 120.42,4 116,4 Z" fill="#427687"/>
  <path d="M121.7,6.3 C120.16,4.84 118.12,4.02 116,4 L12,4 C7.58,4 4,7.58 4,12 L4,116 C4.02,118.12 4.84,120.16 6.3,121.7 L23.1,104.9 L99.1,104.9 C102.36,104.89 104.99,102.26 105,99 L105,23 L121.7,6.3 Z" fill="#8CAFBF"/>
  <path d="M39.7,12.9 C39.7,10.6 38.1,9.9 28.9,10.2 C21.2,10.5 17.4,11.4 15.1,14.2 C12.8,17 12.2,22.7 12.1,29.5 C12.1,34.3 12.1,38.8 14.6,38.8 C18,38.8 18,30.9 20.8,26.5 C26.2,17.8 39.7,15.9 39.7,12.9 Z" fill="#B4E1ED" opacity="0.5"/>
  <path d="M64.9,79.2 L57.9,79.2 C57.02,79.2 56.26,79.83 56.1,80.7 L53,97.3 C52.84,98.17 52.08,98.8 51.2,98.8 L46.9,98.8 C45.89,98.8 45.08,97.99 45.08,96.98 C45.08,96.89 45.09,96.79 45.1,96.7 L48,81.3 C48.15,80.31 47.47,79.38 46.48,79.22 C46.39,79.21 46.29,79.2 46.2,79.2 L39.2,79.2 C38.21,79.21 37.41,78.41 37.4,77.42 C37.4,77.41 37.4,77.41 37.4,77.4 L37.4,73.5 C37.39,72.51 38.19,71.71 39.18,71.7 C39.19,71.7 39.19,71.7 39.2,71.7 L48.3,71.7 C49.18,71.7 49.94,71.07 50.1,70.2 L52.2,58.8 C52.35,57.81 51.67,56.88 50.68,56.72 C50.59,56.71 50.49,56.7 50.4,56.7 L42.8,56.7 C41.81,56.71 41.01,55.91 41,54.92 C41,54.91 41,54.91 41,54.9 L41,51 C40.99,50.01 41.79,49.21 42.78,49.2 C42.79,49.2 42.79,49.2 42.8,49.2 L52.5,49.2 C53.38,49.2 54.14,48.57 54.3,47.7 L57.5,30.8 C57.66,29.93 58.42,29.3 59.3,29.3 L63.6,29.3 C64.61,29.3 65.42,30.11 65.42,31.12 C65.42,31.21 65.41,31.31 65.4,31.4 L62.4,47 C62.22,47.96 62.85,48.89 63.81,49.07 C63.94,49.09 64.07,49.1 64.2,49.1 L71.3,49.1 C72.18,49.1 72.94,48.47 73.1,47.6 L76.3,30.7 C76.46,29.83 77.22,29.2 78.1,29.2 L82.4,29.2 C83.41,29.2 84.22,30.01 84.22,31.02 C84.22,31.11 84.21,31.21 84.2,31.3 L81.1,47 C80.92,47.96 81.55,48.89 82.51,49.07 C82.64,49.09 82.77,49.1 82.9,49.1 L88.8,49.1 C89.79,49.09 90.59,49.89 90.6,50.88 C90.6,50.89 90.6,50.89 90.6,50.9 L90.6,54.8 C90.61,55.79 89.81,56.59 88.82,56.6 C88.81,56.6 88.81,56.6 88.8,56.6 L80.8,56.6 C79.92,56.6 79.16,57.23 79,58.1 L76.9,69.5 C76.75,70.49 77.43,71.42 78.42,71.58 C78.51,71.59 78.61,71.6 78.7,71.6 L85.3,71.6 C86.29,71.59 87.09,72.39 87.1,73.38 C87.1,73.39 87.1,73.39 87.1,73.4 L87.1,77.3 C87.11,78.29 86.31,79.09 85.32,79.1 C85.31,79.1 85.31,79.1 85.3,79.1 L76.6,79.1 C75.72,79.1 74.96,79.73 74.8,80.6 L71.7,97.2 C71.54,98.07 70.78,98.7 69.9,98.7 L65.6,98.7 C64.59,98.7 63.78,97.89 63.78,96.88 C63.78,96.79 63.79,96.69 63.8,96.6 L66.6,81.3 C66.84,80.42 66.33,79.5 65.44,79.26 C65.27,79.21 65.08,79.19 64.9,79.2 Z M60,71.6 L67,71.6 C67.88,71.6 68.64,70.97 68.8,70.1 L70.9,58.7 C71.05,57.71 70.37,56.78 69.38,56.62 C69.29,56.61 69.19,56.6 69.1,56.6 L62.1,56.6 C61.22,56.6 60.46,57.23 60.3,58.1 L58.2,69.5 C58.05,70.49 58.73,71.42 59.72,71.58 C59.81,71.59 59.91,71.6 60,71.6 Z" fill="#FAFAFA"/>
</svg>
